X: 867
T: The maids of Tulla
C: anon.
O: Ireland
B: Francis O'Neill: "The Dance Music of Ireland" (1907) no. 783
R: Reel
Z: Transcribed by Frank Nordberg - http://www.musicaviva.com
F: http://www.musicaviva.com/abc/tunes/ireland/oneill-1001/oneill-1001-078
3.abc
M: C|
L: 1/8
K: A
e(A (3cBA) E(A (3cBA)|eA(ce f)edc|b(B (3deB) g(B (3deB)|d(efg) a(gaf)|e(A
 (3cBA) E(A (3cBA)|e(AcA) fedc|d(efg) afe(c|df)ed (cA)(Aa)||
aA (3AAA (EA)cA|aA (3AAA (fe)dc|bB (3BBB (FB)dB|bB (3BBB (de)fg|aA (3AAA
(EA)cA|aAA(g fed)c|d(efg) afe(c|df)ed (cA)(Aa)|]
W:
W:
W: From Musica Viva - http://www.musicaviva.com
W: the Internet center for free sheet music downloads.


